X: 26970
T: Miss Crawford
R: strathspey
M: 4/4
K: Amajor
|:A2c>A e<ce<a|A2c>A B<EG>B|A2c>A e<ce>a|1 (3gfe (3dcB (3AcB (3AFE:|2 f>ag>b a2A>a||
a>Ac'>A e'>Ac'>A|a>Ac'>A b>ab>c'|a>Ac'>A e'>Ac'>A|(3dfd (3cec B>cd>b|
a>Ac'>A e'>Ac'>A|a>Ac'>A b>ab>c'|(3Ace (3ecA|(3Adf (3fdB|(3gab (3efg a>f(3edB||

